X: 43181
T: Wise Maid, The
R: reel
M: 4/4
K: Dmajor
|:DE|F4({G} FE)DE|FAAB AFE(D|d2) (3efg f(de)c|dBAd B(E{G}ED)|
F4{G} FEDE|FAAB AFE(D|d2) (3efg f(de)c|dBA(F D2):|
|:(3AB(c|d2) A(G F)DFA|dfa(f gf)eg|f(cd)f e(Ac)e|dfe(d cA)Ad|
B(FG)B A(DF)A|dfa(f gf)ed|(3Bcd c(e d)BAG|(3FGF EF D2:|

